X: 1
T:Kneppvals'n
C:anon.
O:Norway
N:After Johs. Tronsmo
R:Vals, waltz
Z:Transcribed by Frank Nordberg - http://www.musicaviva.com
m: Mn2 = n/(3o/n/o/n/
M:3/4
L:1/8
K:A
E2|"A"A2 (Ac) ec|"A"A2 (Ac) ec|"E"d2 (Bd) Bd|"A"(Mc2A2)E2|
"A"A2 (Ac) ec|"A"A2 (Ac) ec|"E"B2 gg gg|"A"a3 z:|
|:(ef/g/|"A"a2)"_pizz"e2"_pizz"e2|"A"c2 A2 "_pizz"e2|"E"cc B2 "_pizz"e2|"A"cc A2 "_pizz"e2|
"A"(ef/g/ a2) "_pizz"e2|"A"cc A2 "_pizz"e2|"E"cc B2 "_pizz"e2|"A""_pizz"A3 z:|
